icon/fa/rupee-sign.svg

<svg xmlns="http://www.w3.org/2000/svg" viewBox="0 0 448 512"><!--! Font Awesome Free 6.1.2 by @fontawesome - https://fontawesome.com License - https://fontawesome.com/license/free (Icons: CC BY 4.0, Fonts: SIL OFL 1.1, Code: MIT License) Copyright 2022 Fonticons, Inc.--><path d="M0 64c0-17.67 14.33-32 32-32h80c79.5 0 144 64.47 144 144 0 58.8-35.2 109.3-85.7 131.7l51.4 128.4c6.6 16.4-1.4 35-17.8 41.6-16.4 6.6-35-1.4-41.6-17.8l-56-139.9H64v128c0 17.7-14.33 32-32 32S0 465.7 0 448V64zm64 192h48c44.2 0 80-35.8 80-80s-35.8-80-80-80H64v160zm256.8 26.2c.5 1.1 1.4 2.6 4.2 4.9 7.2 5.7 18.7 10 37.9 16.7l1.3.5c16.1 4.8 38.7 13.6 54.9 28.1 10.4 8.1 18.8 18.6 23.9 32.3 5.1 13.7 6.1 28.5 3.8 44-4.1 28.1-20.4 48.4-43.7 60.9-22.1 11.1-48.2 12.5-73.2 8l-.2-.1c-9.3-1.7-20.5-5.7-29.2-8.9-6.1-2.3-12.6-4.9-17.8-7-2.5-1-4.6-1.8-6.3-2.5-16.5-6.4-24.6-24.9-18.2-41.4 6.4-16.5 24.9-24.6 41.4-18.2 2.6 1 5.2 2 7.9 3.1 4.8 1.9 9.9 3.9 15.4 6 8.8 3.3 15.3 4.5 18.7 6 15.6 2.9 26.7.9 32.9-2.2 4.9-2.5 8-6.1 9-13.1 1-6.9.2-10.5-.4-12.2-.7-1.7-1.8-3.6-4.5-5.9-6.9-5.8-18.2-10.4-37-17l-3-1.1c-15.5-5.4-37-12.9-53.3-25.9-9.5-7.5-19.2-17.5-23.8-30.9-5.4-13.5-6.6-28.1-4.3-43.2 8.4-58 67-78 116.9-68.9 6 1.3 27.3 5.8 35.4 8.4 16.9 5.2 26.3 23.1 21.1 40-5.3 16.9-23.2 26.3-40.1 21.1-4.7-1.5-22.3-5.5-27.9-6.5-15.5-2.7-25.8-.4-33.5 3.2-5.4 3.3-8 6.7-8.6 12-.9 6-.1 8.8.3 9.8z"/></svg>

<svg xmlns="http://www.w3.org/2000/svg" viewBox="0 0 448 512" height="1em" width="1em">
<!--! Font Awesome Free 6.1.2 by @fontawesome - https://fontawesome.com License - https://fontawesome.com/license/free (Icons: CC BY 4.0, Fonts: SIL OFL 1.1, Code: MIT License) Copyright 2022 Fonticons, Inc.-->
  <path d="M.0003 64C.0003 46.33 14.33 32 32 32H112C191.5 32 256 96.47 256 176C256 234.8 220.8 285.3 170.3 307.7L221.7 436.1C228.3 452.5 220.3 471.1 203.9 477.7C187.5 484.3 168.9 476.3 162.3 459.9L106.3 320H64V448C64 465.7 49.67 480 32 480C14.33 480 0 465.7 0 448L.0003 64zM64 256H112C156.2 256 192 220.2 192 176C192 131.8 156.2 96 112 96H64V256zM320.8 282.2C321.3 283.3 322.2 284.8 325 287.1C332.2 292.8 343.7 297.1 362.9 303.8L364.2 304.3C380.3 309.1 402.9 317.9 419.1 332.4C429.5 340.5 437.9 351 443 364.7C448.1 378.4 449.1 393.2 446.8 408.7C442.7 436.8 426.4 457.1 403.1 469.6C381 480.7 354.9 482.1 329.9 477.6L329.7 477.5C320.4 475.8 309.2 471.8 300.5 468.6C294.4 466.3 287.9 463.7 282.7 461.6C280.2 460.6 278.1 459.8 276.4 459.1C259.9 452.7 251.8 434.2 258.2 417.7C264.6 401.2 283.1 393.1 299.6 399.5C302.2 400.5 304.8 401.5 307.5 402.6C312.3 404.5 317.4 406.5 322.9 408.6C331.7 411.9 338.2 413.1 341.6 414.6C357.2 417.5 368.3 415.5 374.5 412.4C379.4 409.9 382.5 406.3 383.5 399.3C384.5 392.4 383.7 388.8 383.1 387.1C382.4 385.4 381.3 383.5 378.6 381.2C371.7 375.4 360.4 370.8 341.6 364.2L338.6 363.1C323.1 357.7 301.6 350.2 285.3 337.2C275.8 329.7 266.1 319.7 261.5 306.3C256.1 292.8 254.9 278.2 257.2 263.1C265.6 205.1 324.2 185.1 374.1 194.2C380.1 195.5 401.4 200 409.5 202.6C426.4 207.8 435.8 225.7 430.6 242.6C425.3 259.5 407.4 268.9 390.5 263.7C385.8 262.2 368.2 258.2 362.6 257.2C347.1 254.5 336.8 256.8 329.1 260.4C323.7 263.7 321.1 267.1 320.5 272.4C319.6 278.4 320.4 281.2 320.8 282.2H320.8z"/>
</svg>
